X: 2
T: Rakovalkealla
C: Reino Helismaa 1944 (s\"av. & san.)
M: C
L: 1/8
K: Bm
"Intro"F \
| "Em7"GG "A7"AA "D"F3 D | "Em6"EE "F#7"FF "Bm"D3 D \
| "Em6"CC DE "Bm"F^G ^AB | "C#7"cd "C#7-5"ed  "F#7"Hc3 ||
|: F \
| "Bm"BB cd "F#7"cB^AF | "Em7"BB "A7"GB "Dmaj7"A3 F \
| "Em"EE "F#7"FG "Bm"FD CB, | "C#7"C2 "C#7-5"C2 "F#7"z3 F |
| "Em7"BB "A7"GB "Dmaj7"AF "D6"DA | "Em6"GE "F#7"CG "Bm"F3 D \
| "Em6"CC DE "Bm"FD "F#7"F,^A, | C2 "Bm"B,2 z3 F |
| "Em7"GG "A7"AA "Dmaj9"F2 "D6"zD | "Em"EE "F#7"FF "Bm"D2 zD \
| "Em6"CC DE "Bm"FD "F#7"F,^A, |1-3 "F#7"C2 "Bm"B,2 z3 D |
| "Em6"CC DE "Bm"F^G ^AB | "C#7"cd "C#7-5"ed "F#7"Hc3 \
:|4 "F#7"C2 "Bm"HB,2 |] y4 y4 y4 y4 y4 y4
